assets/icons/figma.svg

<svg width="11" height="15" viewBox="0 0 11 15" fill="none" xmlns="http://www.w3.org/2000/svg">
<path fill-rule="evenodd" clip-rule="evenodd" d="M5.62 7.5C5.62 6.11929 6.73928 5 8.12 5C9.50071 5 10.62 6.11929 10.62 7.5C10.62 8.88071 9.50071 10 8.12 10C6.73928 10 5.62 8.88071 5.62 7.5Z" fill="#1ABCFE"/>
<path fill-rule="evenodd" clip-rule="evenodd" d="M0.619995 12.5C0.619995 11.1193 1.73928 10 3.12 10H5.62V12.5C5.62 13.8807 4.50071 15 3.12 15C1.73928 15 0.619995 13.8807 0.619995 12.5Z" fill="#0ACF83"/>
<path fill-rule="evenodd" clip-rule="evenodd" d="M5.62 0L5.62 5H8.12C9.50071 5 10.62 3.88071 10.62 2.5C10.62 1.11929 9.50071 0 8.12 0L5.62 0Z" fill="#FF7262"/>
<path fill-rule="evenodd" clip-rule="evenodd" d="M0.619995 2.5C0.619995 3.88071 1.73928 5 3.12 5L5.62 5L5.62 0L3.12 0C1.73928 0 0.619995 1.11929 0.619995 2.5Z" fill="#F24E1E"/>
<path fill-rule="evenodd" clip-rule="evenodd" d="M0.619995 7.5C0.619995 8.88071 1.73928 10 3.12 10H5.62L5.62 5L3.12 5C1.73928 5 0.619995 6.11929 0.619995 7.5Z" fill="#A259FF"/>
</svg>

<svg width="11" height="15" viewBox="0 0 11 15" fill="none" xmlns="http://www.w3.org/2000/svg"><path fill-rule="evenodd" clip-rule="evenodd" d="M5.62 7.5a2.5 2.5 0 1 1 5 0 2.5 2.5 0 0 1-5 0z" fill="#1ABCFE"/><path fill-rule="evenodd" clip-rule="evenodd" d="M.62 12.5a2.5 2.5 0 0 1 2.5-2.5h2.5v2.5a2.5 2.5 0 0 1-5 0z" fill="#0ACF83"/><path fill-rule="evenodd" clip-rule="evenodd" d="M5.62 0v5h2.5a2.5 2.5 0 0 0 0-5h-2.5z" fill="#FF7262"/><path fill-rule="evenodd" clip-rule="evenodd" d="M.62 2.5A2.5 2.5 0 0 0 3.12 5h2.5V0h-2.5a2.5 2.5 0 0 0-2.5 2.5z" fill="#F24E1E"/><path fill-rule="evenodd" clip-rule="evenodd" d="M.62 7.5a2.5 2.5 0 0 0 2.5 2.5h2.5V5h-2.5a2.5 2.5 0 0 0-2.5 2.5z" fill="#A259FF"/></svg>
